X:1
T:Title
%%score { ( 1 3 ) | ( 2 4 ) }
L:1/8
M:4/4
K:G
V:1 treble nm="Grand Piano"
V:3 treble 
V:2 bass 
V:4 bass 
V:1
 z4 z2[Q:1/4=100] DD | G2 G2 [FA]2 [FA]2 | [DGB]6 [B,D][B,D] | D4- [DA]4 |[M:3/4] [B,DG]6 | %5
[M:1/4] [B,D][B,D] |[M:4/4] [B,DG]2 [B,DG]2 [DFA]2 [DFA]2 | G2- [Gd]4 [EAc][CEA] | D4- [DA]4 | %9
[M:3/4] [B,DG]6 |[M:1/4] [DB][Dc] |[M:4/4] [Dd]4 [Ge]4 | [B,Gd]6 [DGB][CDA] | [DG]4 d4 | %14
 [DFA]6 [CD][CD] | [B,DG]3 [DF] [B,DG]2 [CFA]2 | %16
[M:9/8] [DGB]2 [DFc]- [DFc] [DGd]2- [DGd][Ee][EAc] |[M:4/4] [DGB]4 [FA]4 |[M:3/4] [B,DG]6 |] %19
V:2
 z4 z2 [G,B,][G,B,] | [G,B,D]2 [G,B,D]2 [D,D]2 [D,D]2 | [G,,G,]6 G,,G,, | z4 C4 |[M:3/4] G,,6 | %5
[M:1/4] G,G, |[M:4/4] G,2 G,2 D,2 D,2 | G,6 z2 | z4 C4 |[M:3/4] G,,6 |[M:1/4] [G,,G,][G,,A,] | %11
[M:4/4] [G,,B,]4 C2 _B,2 | G,,6 D,D, | z4 G4 | D,6 D,D, | G,3 A, G,2 D,2 | %16
[M:9/8] G,,2 A,,- A,, B,,2- B,,[C,C]A,, |[M:4/4] z4 C4 |[M:3/4] G,,6 |] %19
V:3
 x8 | x8 | x8 | [B,G]4 z4 |[M:3/4] x6 |[M:1/4] x2 |[M:4/4] x8 | [DB]2 z2 z4 | [B,G]4 z4 | %9
[M:3/4] x6 |[M:1/4] x2 |[M:4/4] x8 | x8 | B,8 | x8 | x8 |[M:9/8] x9 |[M:4/4] x8 |[M:3/4] x6 |] %19
V:4
 x8 | x8 | x8 | D,8 |[M:3/4] x6 |[M:1/4] x2 |[M:4/4] x8 | z2 B,4 C,C, | D,8 |[M:3/4] x6 | %10
[M:1/4] x2 |[M:4/4] z4 C,4 | x8 | G,,8 | x8 | x8 |[M:9/8] x9 |[M:4/4] D,8 |[M:3/4] x6 |] %19

